X: 1
T: The Tide Come In
C: James Hill
M: 4/4
L: 1/8
R: hornpipe
S: John Baty Ms. (1840-1860)
K: Gmin
dc|BAG^F GABc|d2G2 G2bg|fedc BcdB|(3cdc (3BAG Fedc|
BAG^F GABc|dg^fa gfgd|edcB ceAc|B2G2 G2:|
|:ga|bgdB gdBG|DGBd gdbg|afcA fcAF|CFAc fcAc|
BAG^F GABc|dg^fa gfgd|edcB ceAc|B2G2 G2:|
